X:865
T: Rising Sun (A)
T: \'Eir\'i na Gr\'eine
S: B.Breathnach: "Ceol Rince na hEireann" II/214i
Z: B.Black
L: 1/8
M: 4/4
R: reel
K: D
zefe||dADA BAFA|Bdeg fgec|d2B AFDF|EGFE D2 (3ABc|
dADA BAFA|(3Bcd (3efg fgec|dddB AFDF|EGFE D2 ||
(3Bcd|defg afed|(3cBA eA fAeA|defg afbg|(3fga ef d2 (3ABc|
df f2 afed|(3cBA eA fAeA|defd efge|f2 af defe ||
